images/indikatorenset/4135.svg

<?xml version="1.0" standalone="no"?><!DOCTYPE svg PUBLIC "-//W3C//DTD SVG 1.1//EN" "http://www.w3.org/Graphics/SVG/1.1/DTD/svg11.dtd"><svg xmlns:xlink="http://www.w3.org/1999/xlink" version="1.1" class="highcharts-root" style="font-family:Arial;font-size:12px;" xmlns="http://www.w3.org/2000/svg" width="485" height="415"><desc>Created with Highcharts 5.0.7</desc><defs><clipPath id="highcharts-9yiwon2-1"><rect x="0" y="0" width="423" height="250" fill="none"></rect></clipPath></defs><rect fill="#fbfbfb" class="highcharts-background" x="0" y="0" width="485" height="415" rx="0" ry="0"></rect><rect fill="none" class="highcharts-plot-background" x="52" y="100" width="423" height="250"></rect><g class="highcharts-grid highcharts-xaxis-grid "><path fill="none" class="highcharts-grid-line" d="M 74.5 100 L 74.5 350" opacity="1"></path><path fill="none" class="highcharts-grid-line" d="M 111.5 100 L 111.5 350" opacity="1"></path><path fill="none" class="highcharts-grid-line" d="M 149.5 100 L 149.5 350" opacity="1"></path><path fill="none" class="highcharts-grid-line" d="M 187.5 100 L 187.5 350" opacity="1"></path><path fill="none" class="highcharts-grid-line" d="M 225.5 100 L 225.5 350" opacity="1"></path><path fill="none" class="highcharts-grid-line" d="M 263.5 100 L 263.5 350" opacity="1"></path><path fill="none" class="highcharts-grid-line" d="M 300.5 100 L 300.5 350" opacity="1"></path><path fill="none" class="highcharts-grid-line" d="M 338.5 100 L 338.5 350" opacity="1"></path><path fill="none" class="highcharts-grid-line" d="M 376.5 100 L 376.5 350" opacity="1"></path><path fill="none" class="highcharts-grid-line" d="M 414.5 100 L 414.5 350" opacity="1"></path><path fill="none" class="highcharts-grid-line" d="M 451.5 100 L 451.5 350" opacity="1"></path></g><g class="highcharts-grid highcharts-yaxis-grid "><path fill="none" stroke="#e6e6e6" stroke-width="1" class="highcharts-grid-line" d="M 52 350.5 L 475 350.5" opacity="1"></path><path fill="none" stroke="#e6e6e6" stroke-width="1" class="highcharts-grid-line" d="M 52 300.5 L 475 300.5" opacity="1"></path><path fill="none" stroke="#e6e6e6" stroke-width="1" class="highcharts-grid-line" d="M 52 250.5 L 475 250.5" opacity="1"></path><path fill="none" stroke="#e6e6e6" stroke-width="1" class="highcharts-grid-line" d="M 52 200.5 L 475 200.5" opacity="1"></path><path fill="none" stroke="#e6e6e6" stroke-width="1" class="highcharts-grid-line" d="M 52 150.5 L 475 150.5" opacity="1"></path><path fill="none" stroke="#e6e6e6" stroke-width="1" class="highcharts-grid-line" d="M 52 99.5 L 475 99.5" opacity="1"></path></g><rect fill="none" class="highcharts-plot-border" x="52" y="100" width="423" height="250"></rect><g class="highcharts-axis highcharts-xaxis "><path fill="none" class="highcharts-tick" stroke="#FFFFFF" stroke-width="1" d="M 74.5 350 L 74.5 360" opacity="1"></path><path fill="none" class="highcharts-tick" stroke="#FFFFFF" stroke-width="1" d="M 111.5 350 L 111.5 360" opacity="1"></path><path fill="none" class="highcharts-tick" stroke="#FFFFFF" stroke-width="1" d="M 149.5 350 L 149.5 360" opacity="1"></path><path fill="none" class="highcharts-tick" stroke="#FFFFFF" stroke-width="1" d="M 187.5 350 L 187.5 360" opacity="1"></path><path fill="none" class="highcharts-tick" stroke="#FFFFFF" stroke-width="1" d="M 225.5 350 L 225.5 360" opacity="1"></path><path fill="none" class="highcharts-tick" stroke="#FFFFFF" stroke-width="1" d="M 263.5 350 L 263.5 360" opacity="1"></path><path fill="none" class="highcharts-tick" stroke="#FFFFFF" stroke-width="1" d="M 300.5 350 L 300.5 360" opacity="1"></path><path fill="none" class="highcharts-tick" stroke="#FFFFFF" stroke-width="1" d="M 338.5 350 L 338.5 360" opacity="1"></path><path fill="none" class="highcharts-tick" stroke="#FFFFFF" stroke-width="1" d="M 376.5 350 L 376.5 360" opacity="1"></path><path fill="none" class="highcharts-tick" stroke="#FFFFFF" stroke-width="1" d="M 414.5 350 L 414.5 360" opacity="1"></path><path fill="none" class="highcharts-tick" stroke="#FFFFFF" stroke-width="1" d="M 451.5 350 L 451.5 360" opacity="1"></path><path fill="none" class="highcharts-axis-line" stroke="#ccd6eb" stroke-width="1" d="M 52 350.5 L 475 350.5"></path></g><g class="highcharts-axis highcharts-yaxis "><path fill="none" class="highcharts-axis-line" d="M 52 100 L 52 350"></path></g><g class="highcharts-series-group"><g class="highcharts-series highcharts-series-0 highcharts-column-series highcharts-color-undefined highcharts-tracker" transform="translate(52,100) scale(1 1)" clip-path="url(#highcharts-9yiwon2-1)"><rect x="6.5" y="140.5" width="10" height="60" fill="#68ab2b" class="highcharts-point" stroke="#ffffff" stroke-width="1"></rect><rect x="44.5" y="129.5" width="10" height="71" fill="#68ab2b" class="highcharts-point" stroke="#ffffff" stroke-width="1"></rect><rect x="81.5" y="176.5" width="10" height="24" fill="#68ab2b" class="highcharts-point" stroke="#ffffff" stroke-width="1"></rect><rect x="119.5" y="160.5" width="10" height="40" fill="#68ab2b" class="highcharts-point" stroke="#ffffff" stroke-width="1"></rect><rect x="157.5" y="106.5" width="10" height="94" fill="#68ab2b" class="highcharts-point" stroke="#ffffff" stroke-width="1"></rect><rect x="195.5" y="126.5" width="10" height="74" fill="#68ab2b" class="highcharts-point" stroke="#ffffff" stroke-width="1"></rect><rect x="232.5" y="130.5" width="10" height="70" fill="#68ab2b" class="highcharts-point" stroke="#ffffff" stroke-width="1"></rect><rect x="270.5" y="146.5" width="10" height="54" fill="#68ab2b" class="highcharts-point" stroke="#ffffff" stroke-width="1"></rect><rect x="308.5" y="165.5" width="10" height="35" fill="#68ab2b" class="highcharts-point" stroke="#ffffff" stroke-width="1"></rect><rect x="346.5" y="126.5" width="10" height="74" fill="#68ab2b" class="highcharts-point" stroke="#ffffff" stroke-width="1"></rect><rect x="383.5" y="42.5" width="10" height="158" fill="#68ab2b" class="highcharts-point" stroke="#ffffff" stroke-width="1"></rect></g><g class="highcharts-markers highcharts-series-0 highcharts-column-series highcharts-color-undefined " transform="translate(52,100) scale(1 1)" clip-path="none"></g><g class="highcharts-series highcharts-series-1 highcharts-column-series highcharts-color-undefined highcharts-tracker" transform="translate(52,100) scale(1 1)" clip-path="url(#highcharts-9yiwon2-1)"><rect x="17.5" y="200.5" width="10" height="3" fill="#cd9c00" class="highcharts-point highcharts-negative" stroke="#ffffff" stroke-width="1"></rect><rect x="55.5" y="200.5" width="10" height="27" fill="#cd9c00" class="highcharts-point highcharts-negative" stroke="#ffffff" stroke-width="1"></rect><rect x="93.5" y="200.5" width="10" height="21" fill="#cd9c00" class="highcharts-point highcharts-negative" stroke="#ffffff" stroke-width="1"></rect><rect x="130.5" y="200.5" width="10" height="25" fill="#cd9c00" class="highcharts-point highcharts-negative" stroke="#ffffff" stroke-width="1"></rect><rect x="168.5" y="200.5" width="10" height="30" fill="#cd9c00" class="highcharts-point highcharts-negative" stroke="#ffffff" stroke-width="1"></rect><rect x="206.5" y="200.5" width="10" height="29" fill="#cd9c00" class="highcharts-point highcharts-negative" stroke="#ffffff" stroke-width="1"></rect><rect x="244.5" y="200.5" width="10" height="12" fill="#cd9c00" class="highcharts-point highcharts-negative" stroke="#ffffff" stroke-width="1"></rect><rect x="282.5" y="200.5" width="10" height="5" fill="#cd9c00" class="highcharts-point highcharts-negative" stroke="#ffffff" stroke-width="1"></rect><rect x="319.5" y="200.5" width="10" height="8" fill="#cd9c00" class="highcharts-point highcharts-negative" stroke="#ffffff" stroke-width="1"></rect><rect x="357.5" y="200.5" width="10" height="11" fill="#cd9c00" class="highcharts-point highcharts-negative" stroke="#ffffff" stroke-width="1"></rect><rect x="395.5" y="200.5" width="10" height="36" fill="#cd9c00" class="highcharts-point highcharts-negative" stroke="#ffffff" stroke-width="1"></rect></g><g class="highcharts-markers highcharts-series-1 highcharts-column-series highcharts-color-undefined " transform="translate(52,100) scale(1 1)" clip-path="none"></g><g class="highcharts-series highcharts-series-2 highcharts-column-series highcharts-color-undefined highcharts-tracker" transform="translate(52,100) scale(1 1)" clip-path="url(#highcharts-9yiwon2-1)"><rect x="28.5" y="200.5" width="10" height="14" fill="#008ac3" class="highcharts-point highcharts-negative" stroke="#ffffff" stroke-width="1"></rect><rect x="66.5" y="200.5" width="10" height="11" fill="#008ac3" class="highcharts-point highcharts-negative" stroke="#ffffff" stroke-width="1"></rect><rect x="104.5" y="200.5" width="10" height="15" fill="#008ac3" class="highcharts-point highcharts-negative" stroke="#ffffff" stroke-width="1"></rect><rect x="142.5" y="200.5" width="10" height="6" fill="#008ac3" class="highcharts-point highcharts-negative" stroke="#ffffff" stroke-width="1"></rect><rect x="180.5" y="200.5" width="10" height="4" fill="#008ac3" class="highcharts-point highcharts-negative" stroke="#ffffff" stroke-width="1"></rect><rect x="217.5" y="200.5" width="10" height="4" fill="#008ac3" class="highcharts-point highcharts-negative" stroke="#ffffff" stroke-width="1"></rect><rect x="255.5" y="196.5" width="10" height="4" fill="#008ac3" class="highcharts-point" stroke="#ffffff" stroke-width="1"></rect><rect x="293.5" y="194.5" width="10" height="6" fill="#008ac3" class="highcharts-point" stroke="#ffffff" stroke-width="1"></rect><rect x="331.5" y="193.5" width="10" height="7" fill="#008ac3" class="highcharts-point" stroke="#ffffff" stroke-width="1"></rect><rect x="368.5" y="164.5" width="10" height="36" fill="#008ac3" class="highcharts-point" stroke="#ffffff" stroke-width="1"></rect><rect x="406.5" y="195.5" width="10" height="5" fill="#008ac3" class="highcharts-point" stroke="#ffffff" stroke-width="1"></rect></g><g class="highcharts-markers highcharts-series-2 highcharts-column-series highcharts-color-undefined " transform="translate(52,100) scale(1 1)" clip-path="none"></g><g class="highcharts-series highcharts-series-3 highcharts-line-series highcharts-color-undefined " transform="translate(52,100) scale(1 1)" clip-path="url(#highcharts-9yiwon2-1)"><path fill="none" d="M 22.660714285711 157 L 60.428571428569 167.39999999999998 L 98.196428571427 212.2 L 135.96428571428 190.4 L 173.73214285714 140 L 211.5 158.39999999999998 L 249.26785714286 137.8 L 287.03571428572 146 L 324.80357142857 165.8 L 362.57142857143 100.79999999999998 L 400.33928571429 73" class="highcharts-graph" stroke="#2e1435" stroke-width="2" stroke-linejoin="round" stroke-linecap="round"></path><path fill="none" d="M 12.660714285710998 157 L 22.660714285711 157 L 60.428571428569 167.39999999999998 L 98.196428571427 212.2 L 135.96428571428 190.4 L 173.73214285714 140 L 211.5 158.39999999999998 L 249.26785714286 137.8 L 287.03571428572 146 L 324.80357142857 165.8 L 362.57142857143 100.79999999999998 L 400.33928571429 73 L 410.33928571429 73" stroke-linejoin="round" visibility="visible" stroke="rgba(192,192,192,0.0001)" stroke-width="22" class="highcharts-tracker"></path></g><g class="highcharts-markers highcharts-series-3 highcharts-line-series highcharts-color-undefined highcharts-tracker" transform="translate(52,100) scale(1 1)" clip-path="none"></g></g><text x="10" text-anchor="start" class="highcharts-title" style="color:#000000;font-size:14px;font-weight:bold;fill:#000000;" y="21"><tspan>1.2.c-1 Nettowohnungsproduktion</tspan></text><g class="highcharts-legend" transform="translate(10,30)"><rect fill="none" class="highcharts-legend-box" rx="0" ry="0" x="0" y="0" width="453" height="25" visibility="visible"></rect><g><g><g class="highcharts-legend-item highcharts-column-series highcharts-color-undefined highcharts-series-0" transform="translate(8,3)"><text x="21" style="color:#333333;font-size:12px;font-weight:normal;cursor:pointer;fill:#333333;" text-anchor="start" y="15">Neubau</text><rect x="2" y="4" width="12" height="12" fill="#68ab2b" class="highcharts-point"></rect></g><g class="highcharts-legend-item highcharts-column-series highcharts-color-undefined highcharts-series-1" transform="translate(91.015625,3)"><text x="21" y="15" style="color:#333333;font-size:12px;font-weight:normal;cursor:pointer;fill:#333333;" text-anchor="start">Abbruch</text><rect x="2" y="4" width="12" height="12" fill="#cd9c00" class="highcharts-point"></rect></g><g class="highcharts-legend-item highcharts-column-series highcharts-color-undefined highcharts-series-2" transform="translate(176.6875,3)"><text x="21" y="15" style="color:#333333;font-size:12px;font-weight:normal;cursor:pointer;fill:#333333;" text-anchor="start">Umbausaldo</text><rect x="2" y="4" width="12" height="12" fill="#008ac3" class="highcharts-point"></rect></g><g class="highcharts-legend-item highcharts-line-series highcharts-color-undefined highcharts-series-3" transform="translate(285.015625,3)"><path fill="none" d="M 0 11 L 16 11" class="highcharts-graph" stroke="#2e1435" stroke-width="2"></path><text x="21" y="15" style="color:#333333;font-size:12px;font-weight:normal;cursor:pointer;fill:#333333;" text-anchor="start">Nettowohnungsproduktion</text></g></g></g></g><g class="highcharts-axis-labels highcharts-xaxis-labels "><text x="74.66071428571122" style="color:#000000;cursor:default;font-size:11px;fill:#000000;" text-anchor="middle" transform="translate(0,0)" y="369" opacity="1">2005</text><text x="112.42857142856897" style="color:#000000;cursor:default;font-size:11px;fill:#000000;" text-anchor="middle" transform="translate(0,0)" y="369" opacity="1">2006</text><text x="150.19642857142674" style="color:#000000;cursor:default;font-size:11px;fill:#000000;" text-anchor="middle" transform="translate(0,0)" y="369" opacity="1">2007</text><text x="187.9642857142845" style="color:#000000;cursor:default;font-size:11px;fill:#000000;" text-anchor="middle" transform="translate(0,0)" y="369" opacity="1">2008</text><text x="225.73214285714224" style="color:#000000;cursor:default;font-size:11px;fill:#000000;" text-anchor="middle" transform="translate(0,0)" y="369" opacity="1">2009</text><text x="263.5" style="color:#000000;cursor:default;font-size:11px;fill:#000000;" text-anchor="middle" transform="translate(0,0)" y="369" opacity="1">2010</text><text x="301.2678571428578" style="color:#000000;cursor:default;font-size:11px;fill:#000000;" text-anchor="middle" transform="translate(0,0)" y="369" opacity="1">2011</text><text x="339.0357142857155" style="color:#000000;cursor:default;font-size:11px;fill:#000000;" text-anchor="middle" transform="translate(0,0)" y="369" opacity="1">2012</text><text x="376.8035714285733" style="color:#000000;cursor:default;font-size:11px;fill:#000000;" text-anchor="middle" transform="translate(0,0)" y="369" opacity="1">2013</text><text x="414.57142857143106" style="color:#000000;cursor:default;font-size:11px;fill:#000000;" text-anchor="middle" transform="translate(0,0)" y="369" opacity="1">2014</text><text x="452.3392857142888" style="color:#000000;cursor:default;font-size:11px;fill:#000000;" text-anchor="middle" transform="translate(0,0)" y="369" opacity="1">2015</text></g><g class="highcharts-axis-labels highcharts-yaxis-labels "><text x="37" style="color:#000000;cursor:default;font-size:11px;fill:#000000;" text-anchor="end" transform="translate(0,0)" y="355" opacity="1"><tspan>-250</tspan></text><text x="37" style="color:#000000;cursor:default;font-size:11px;fill:#000000;" text-anchor="end" transform="translate(0,0)" y="305" opacity="1"><tspan>0</tspan></text><text x="37" style="color:#000000;cursor:default;font-size:11px;fill:#000000;" text-anchor="end" transform="translate(0,0)" y="255" opacity="1"><tspan>250</tspan></text><text x="37" style="color:#000000;cursor:default;font-size:11px;fill:#000000;" text-anchor="end" transform="translate(0,0)" y="205" opacity="1"><tspan>500</tspan></text><text x="37" style="color:#000000;cursor:default;font-size:11px;fill:#000000;" text-anchor="end" transform="translate(0,0)" y="155" opacity="1"><tspan>750</tspan></text><text x="37" style="color:#000000;cursor:default;font-size:11px;fill:#000000;" text-anchor="end" transform="translate(0,0)" y="105" opacity="1"><tspan>1 000</tspan></text></g><text x="10" class="highcharts-credits" text-anchor="start" style="cursor:default;color:#000000;font-size:10px;fill:#000000;" y="400"><tspan>Quelle: Statistisches Amt Basel-Stadt, kantonale Gebäude- und Wohnungsstatistik</tspan></text></svg>

<svg class="highcharts-root" xmlns="http://www.w3.org/2000/svg" viewBox="0 0 485 415" font-family="Arial" font-size="12">
    <defs>
        <clipPath id="a">
            <path fill="none" d="M0 0h423v250H0z"/>
        </clipPath>
    </defs>
    <rect fill="#fbfbfb" class="highcharts-background" width="485" height="415" rx="0" ry="0"/>
    <path fill="none" class="highcharts-plot-background" d="M52 100h423v250H52z"/>
    <g class="highcharts-grid highcharts-xaxis-grid">
        <path fill="none" class="highcharts-grid-line" d="M74.5 100v250m37-250v250m38-250v250m38-250v250m38-250v250m38-250v250m37-250v250m38-250v250m38-250v250m38-250v250m37-250v250"/>
    </g>
    <g class="highcharts-grid highcharts-yaxis-grid">
        <path fill="none" stroke="#e6e6e6" class="highcharts-grid-line" d="M52 350.5h423m-423-50h423m-423-50h423m-423-50h423m-423-50h423m-423-51h423"/>
    </g>
    <path fill="none" class="highcharts-plot-border" d="M52 100h423v250H52z"/>
    <g class="highcharts-axis highcharts-xaxis">
        <path fill="none" class="highcharts-tick" stroke="#FFF" d="M74.5 350v10m37-10v10m38-10v10m38-10v10m38-10v10m38-10v10m37-10v10m38-10v10m38-10v10m38-10v10m37-10v10"/>
        <path fill="none" class="highcharts-axis-line" stroke="#ccd6eb" d="M52 350.5h423"/>
    </g>
    <g class="highcharts-axis highcharts-yaxis">
        <path fill="none" class="highcharts-axis-line" d="M52 100v250"/>
    </g>
    <g class="highcharts-series-group">
        <g class="highcharts-series highcharts-series-0 highcharts-column-series highcharts-color-undefined highcharts-tracker" transform="translate(52 100)" clip-path="url(#a)">
            <path fill="#68ab2b" class="highcharts-point" stroke="#fff" d="M6.5 140.5h10v60h-10zm38-11h10v71h-10zm37 47h10v24h-10zm38-16h10v40h-10zm38-54h10v94h-10zm38 20h10v74h-10zm37 4h10v70h-10zm38 16h10v54h-10zm38 19h10v35h-10zm38-39h10v74h-10zm37-84h10v158h-10z"/>
        </g>
        <g class="highcharts-series highcharts-series-1 highcharts-column-series highcharts-color-undefined highcharts-tracker" transform="translate(52 100)" clip-path="url(#a)">
            <path fill="#cd9c00" class="highcharts-point highcharts-negative" stroke="#fff" d="M17.5 200.5h10v3h-10zm38 0h10v27h-10zm38 0h10v21h-10zm37 0h10v25h-10zm38 0h10v30h-10zm38 0h10v29h-10zm38 0h10v12h-10zm38 0h10v5h-10zm37 0h10v8h-10zm38 0h10v11h-10zm38 0h10v36h-10z"/>
        </g>
        <g class="highcharts-series highcharts-series-2 highcharts-column-series highcharts-color-undefined highcharts-tracker" transform="translate(52 100)" clip-path="url(#a)">
            <path fill="#008ac3" class="highcharts-point highcharts-negative" stroke="#fff" d="M28.5 200.5h10v14h-10zm38 0h10v11h-10zm38 0h10v15h-10zm38 0h10v6h-10zm38 0h10v4h-10zm37 0h10v4h-10z"/>
            <path fill="#008ac3" class="highcharts-point" stroke="#fff" d="M255.5 196.5h10v4h-10zm38-2h10v6h-10zm38-1h10v7h-10zm37-29h10v36h-10zm38 31h10v5h-10z"/>
        </g>
        <g class="highcharts-series highcharts-series-3 highcharts-line-series highcharts-color-undefined" transform="translate(52 100)" clip-path="url(#a)">
            <path fill="none" d="M22.66 157l37.769 10.4 37.767 44.8 37.768-21.8 37.768-50.4 37.768 18.4 37.768-20.6 37.768 8.2 37.768 19.8 37.767-65L400.34 73" class="highcharts-graph" stroke="#2e1435" stroke-width="2" stroke-linejoin="round" stroke-linecap="round"/>
            <path fill="none" d="M12.66 157h10l37.769 10.4 37.767 44.8 37.768-21.8 37.768-50.4 37.768 18.4 37.768-20.6 37.768 8.2 37.768 19.8 37.767-65L400.34 73h10" stroke-linejoin="round" stroke="rgba(192,192,192,0.0001)" stroke-width="22" class="highcharts-tracker"/>
        </g>
    </g>
    <text x="10" class="highcharts-title" y="21" color="#000" font-size="14" font-weight="700">
        <tspan>1.2.c-1 Nettowohnungsproduktion</tspan>
    </text>
    <g class="highcharts-legend" transform="translate(10 30)">
        <rect fill="none" class="highcharts-legend-box" rx="0" ry="0" width="453" height="25"/>
        <g class="highcharts-legend-item highcharts-column-series highcharts-color-undefined highcharts-series-0">
            <text x="21" y="15" color="#333" font-weight="400" cursor="pointer" fill="#333" transform="translate(8 3)">
                Neubau
            </text>
            <path fill="#68ab2b" class="highcharts-point" d="M10 7h12v12H10z"/>
        </g>
        <g class="highcharts-legend-item highcharts-column-series highcharts-color-undefined highcharts-series-1">
            <text x="21" y="15" color="#333" font-weight="400" cursor="pointer" fill="#333" transform="translate(91.016 3)">
                Abbruch
            </text>
            <path fill="#cd9c00" class="highcharts-point" d="M93.016 7h12v12h-12z"/>
        </g>
        <g class="highcharts-legend-item highcharts-column-series highcharts-color-undefined highcharts-series-2">
            <text x="21" y="15" color="#333" font-weight="400" cursor="pointer" fill="#333" transform="translate(176.688 3)">
                Umbausaldo
            </text>
            <path fill="#008ac3" class="highcharts-point" d="M178.688 7h12v12h-12z"/>
        </g>
        <g class="highcharts-legend-item highcharts-line-series highcharts-color-undefined highcharts-series-3">
            <path fill="none" d="M285.016 14h16" class="highcharts-graph" stroke="#2e1435" stroke-width="2"/>
            <text x="21" y="15" color="#333" font-weight="400" cursor="pointer" fill="#333" transform="translate(285.016 3)">
                Nettowohnungsproduktion
            </text>
        </g>
    </g>
    <g class="highcharts-axis-labels highcharts-xaxis-labels" text-anchor="middle" color="#000" cursor="default" font-size="11">
        <text x="74.661" y="369">
            2005
        </text>
        <text x="112.429" y="369">
            2006
        </text>
        <text x="150.196" y="369">
            2007
        </text>
        <text x="187.964" y="369">
            2008
        </text>
        <text x="225.732" y="369">
            2009
        </text>
        <text x="263.5" y="369">
            2010
        </text>
        <text x="301.268" y="369">
            2011
        </text>
        <text x="339.036" y="369">
            2012
        </text>
        <text x="376.804" y="369">
            2013
        </text>
        <text x="414.571" y="369">
            2014
        </text>
        <text x="452.339" y="369">
            2015
        </text>
    </g>
    <g class="highcharts-axis-labels highcharts-yaxis-labels" text-anchor="end" color="#000" cursor="default" font-size="11">
        <text x="37" y="355">
            <tspan>-250</tspan>
        </text>
        <text x="37" y="305">
            <tspan>0</tspan>
        </text>
        <text x="37" y="255">
            <tspan>250</tspan>
        </text>
        <text x="37" y="205">
            <tspan>500</tspan>
        </text>
        <text x="37" y="155">
            <tspan>750</tspan>
        </text>
        <text x="37" y="105">
            <tspan>1 000</tspan>
        </text>
    </g>
    <text x="10" class="highcharts-credits" y="400" cursor="default" color="#000" font-size="10">
        <tspan>Quelle: Statistisches Amt Basel-Stadt, kantonale Gebäude- und Wohnungsstatistik</tspan>
    </text>
</svg>
